img/cubedcss.svg

<?xml version="1.0" encoding="UTF-8"?>
<svg width="600px" height="355px" viewBox="0 0 600 355" version="1.1" xmlns="http://www.w3.org/2000/svg" xmlns:xlink="http://www.w3.org/1999/xlink">
    <!-- Generator: Sketch 52.3 (67297) - http://www.bohemiancoding.com/sketch -->
    <title>cubed css</title>
    <desc>Created with Sketch.</desc>
    <defs>
        <radialGradient cx="50%" cy="50%" fx="50%" fy="50%" r="84.5070423%" gradientTransform="translate(0.500000,0.500000),scale(0.591667,1.000000),translate(-0.500000,-0.500000)" id="radialGradient-1">
            <stop stop-color="#166DFF" offset="0%"></stop>
            <stop stop-color="#0346B8" offset="100%"></stop>
        </radialGradient>
    </defs>
    <g id="cubed-css" stroke="none" stroke-width="1" fill="none" fill-rule="evenodd">
        <rect id="background" fill="url(#radialGradient-1)" x="0" y="0" width="600" height="355"></rect>
        <g id="cubed-logo" transform="translate(37.000000, 92.000000)" fill="#FFFFFF">
            <polygon id="Shape" points="98.1322564 13.8975265 98.1322564 47.7349823 74.204947 34.139576 29.3791015 60.1219081 29.3791015 111.784452 74.204947 137.766784 98.1322564 124.171378 98.1322564 157.102473 74.204947 171 0 128.40106 0 42.9010601 74.204947 0 85.7909945 6.72944036"></polygon>
            <polygon id="Path" fill-opacity="0.75" points="74.204947 48.6413428 98.1322564 62.1892074 98.1322564 109.279309 74.204947 122.962898 74.204947 85.5"></polygon>
            <polygon id="Path" fill-opacity="0.75" points="119.33367 25.9823322 148.409894 42.9010601 148.409894 128.40106 119.33367 145.017668 119.33367 85.5"></polygon>
        </g>
        <path d="M237.472,157.336 C240.352014,157.336 242.847989,157.683997 244.96,158.38 C247.072011,159.076003 248.895992,160.047994 250.432,161.296 C253.456015,163.744012 255.423995,167.175978 256.336,171.592 L247.264,173.248 C246.495996,170.799988 245.308008,168.820008 243.7,167.308 C242.091992,165.795992 240.088012,165.04 237.688,165.04 C234.423984,165.04 231.78401,166.407986 229.768,169.144 C227.607989,172.120015 226.528,176.235974 226.528,181.492 C226.528,186.748026 227.48799,190.851985 229.408,193.804 C231.32801,196.756015 233.943983,198.232 237.256,198.232 C240.568017,198.232 243.063992,197.428008 244.744,195.82 C246.424008,194.211992 247.264,192.136013 247.264,189.592 L256.408,189.592 C256.408,194.824026 254.740017,198.867986 251.404,201.724 C248.067983,204.580014 243.496029,206.008 237.688,206.008 C231.495969,206.008 226.576018,203.848022 222.928,199.528 C219.231982,195.111978 217.384,189.112038 217.384,181.528 C217.384,173.847962 219.279981,167.848022 223.072,163.528 C226.720018,159.399979 231.51997,157.336 237.472,157.336 Z M289.6,198.664 C287.391989,203.320023 283.840024,205.648 278.944,205.648 C272.751969,205.648 268.67201,203.224024 266.704,198.376 C265.983996,196.695992 265.624,194.656012 265.624,192.256 L265.624,169.936 L274.12,169.936 L274.12,191.392 C274.12,193.696012 274.671994,195.411994 275.776,196.54 C276.880006,197.668006 278.235992,198.232 279.844,198.232 C281.452008,198.232 282.807994,198.004002 283.912,197.548 C285.016006,197.091998 285.975996,196.408005 286.792,195.496 C288.568009,193.43199 289.504,190.672017 289.6,187.216 L289.6,169.936 L298.096,169.936 L298.096,205 L289.6,205 L289.6,198.664 Z M340.864,174.112 C343.840015,177.472017 345.328,181.887973 345.328,187.36 C345.328,192.832027 343.768016,197.343982 340.648,200.896 C337.623985,204.304017 333.856023,206.008 329.344,206.008 C327.183989,206.008 325.204009,205.432006 323.404,204.28 C321.603991,203.127994 320.176005,201.352012 319.12,198.952 L317.032,205 L311.488,205 L311.488,155.608 L319.984,155.608 L319.984,174.4 C322.192011,170.847982 325.491978,169.072 329.884,169.072 C334.276022,169.072 337.935985,170.751983 340.864,174.112 Z M319.984,185.344 L319.984,189.952 C320.08,192.400012 320.967992,194.415992 322.648,196 C324.232008,197.536008 326.163989,198.304 328.444,198.304 C330.724011,198.304 332.679992,197.30801 334.312,195.316 C335.944008,193.32399 336.76,190.696016 336.76,187.432 C336.76,184.167984 335.956008,181.56401 334.348,179.62 C332.739992,177.67599 330.736012,176.704 328.336,176.704 C325.935988,176.704 323.944008,177.495992 322.36,179.08 C320.775992,180.664008 319.984,182.751987 319.984,185.344 Z M380.104,174.184 C381.304006,175.720008 382.203997,177.49599 382.804,179.512 C383.404003,181.52801 383.704,183.375992 383.704,185.056 C383.704,186.736008 383.608001,188.247993 383.416,189.592 L360.808,189.592 C360.904,192.424014 361.599994,194.727991 362.896,196.504 C364.192006,198.280009 366.159987,199.168 368.8,199.168 C372.304018,199.168 374.391997,197.632015 375.064,194.56 L383.632,194.56 C383.055997,198.064018 381.448013,200.82399 378.808,202.84 C376.071986,204.952011 372.73602,206.008 368.8,206.008 C364.191977,206.008 360.328016,204.328017 357.208,200.968 C353.991984,197.463982 352.384,192.976027 352.384,187.504 C352.384,181.887972 353.991984,177.376017 357.208,173.968 C360.280015,170.703984 364.143977,169.072 368.8,169.072 C373.648024,169.072 377.415987,170.775983 380.104,174.184 Z M368.872,175.84 C366.471988,175.84 364.600007,176.619992 363.256,178.18 C361.911993,179.740008 361.120001,181.743988 360.88,184.192 L375.784,184.192 C375.784,180.399981 374.584012,177.856006 372.184,176.56 C371.271995,176.079998 370.168006,175.84 368.872,175.84 Z M416.68,199.6 C414.519989,203.872021 411.208022,206.008 406.744,206.008 C402.279978,206.008 398.536015,204.304017 395.512,200.896 C392.391984,197.343982 390.832,192.832027 390.832,187.36 C390.832,181.887973 392.319985,177.448017 395.296,174.04 C398.224015,170.727983 401.871978,169.072 406.24,169.072 C410.608022,169.072 413.895989,170.823982 416.104,174.328 L416.104,155.608 L424.672,155.608 L424.672,205 L417.688,205 L416.68,199.6 Z M407.824,176.704 C405.423988,176.704 403.420008,177.67599 401.812,179.62 C400.203992,181.56401 399.4,184.167984 399.4,187.432 C399.4,190.696016 400.215992,193.32399 401.848,195.316 C403.480008,197.30801 405.543988,198.304 408.04,198.304 C410.10401,198.304 411.951992,197.488008 413.584,195.856 C415.264008,194.175992 416.104,192.064013 416.104,189.52 L416.104,184.984 C416.008,182.487988 415.168008,180.448008 413.584,178.864 C412.143993,177.423993 410.224012,176.704 407.824,176.704 Z M454.84,157.336 C457.720014,157.336 460.215989,157.683997 462.328,158.38 C464.440011,159.076003 466.263992,160.047994 467.8,161.296 C470.824015,163.744012 472.791995,167.175978 473.704,171.592 L464.632,173.248 C463.863996,170.799988 462.676008,168.820008 461.068,167.308 C459.459992,165.795992 457.456012,165.04 455.056,165.04 C451.791984,165.04 449.15201,166.407986 447.136,169.144 C444.975989,172.120015 443.896,176.235974 443.896,181.492 C443.896,186.748026 444.85599,190.851985 446.776,193.804 C448.69601,196.756015 451.311983,198.232 454.624,198.232 C457.936017,198.232 460.431992,197.428008 462.112,195.82 C463.792008,194.211992 464.632,192.136013 464.632,189.592 L473.776,189.592 C473.776,194.824026 472.108017,198.867986 468.772,201.724 C465.435983,204.580014 460.864029,206.008 455.056,206.008 C448.863969,206.008 443.944018,203.848022 440.296,199.528 C436.599982,195.111978 434.752,189.112038 434.752,181.528 C434.752,173.847962 436.647981,167.848022 440.44,163.528 C444.088018,159.399979 448.88797,157.336 454.84,157.336 Z M508.264,171.16 C507.495996,167.07998 504.616025,165.04 499.624,165.04 C497.175988,165.04 495.268007,165.531995 493.9,166.516 C492.531993,167.500005 491.848,168.687993 491.848,170.08 C491.848,171.472007 492.291996,172.563996 493.18,173.356 C494.068004,174.148004 495.447991,174.879997 497.32,175.552 L507.472,179.512 C510.928017,180.856007 513.591991,182.54799 515.464,184.588 C517.336009,186.62801 518.272,189.183985 518.272,192.256 C518.272,196.480021 516.688016,199.827988 513.52,202.3 C510.351984,204.772012 505.840029,206.008 499.984,206.008 C494.799974,206.008 490.600016,204.736013 487.384,202.192 C483.783982,199.407986 481.888001,195.472025 481.696,190.384 L490.12,190.384 C490.12,194.224019 492.11198,196.647995 496.096,197.656 C497.296006,197.992002 498.87999,198.16 500.848,198.16 C502.81601,198.16 504.639992,197.668005 506.32,196.684 C508.000008,195.699995 508.84,194.380008 508.84,192.724 C508.84,191.067992 508.384005,189.796004 507.472,188.908 C506.559995,188.019996 505.07201,187.192004 503.008,186.424 L493.72,182.752 C490.119982,181.359993 487.36001,179.728009 485.44,177.856 C483.51999,175.983991 482.56,173.392017 482.56,170.08 C482.56,166.191981 484.071985,163.120011 487.096,160.864 C490.168015,158.511988 494.331974,157.336 499.588,157.336 C504.844026,157.336 508.899986,158.547988 511.756,160.972 C514.612014,163.396012 516.255998,166.791978 516.688,171.16 L508.264,171.16 Z M554.2,171.16 C553.431996,167.07998 550.552025,165.04 545.56,165.04 C543.111988,165.04 541.204007,165.531995 539.836,166.516 C538.467993,167.500005 537.784,168.687993 537.784,170.08 C537.784,171.472007 538.227996,172.563996 539.116,173.356 C540.004004,174.148004 541.383991,174.879997 543.256,175.552 L553.408,179.512 C556.864017,180.856007 559.527991,182.54799 561.4,184.588 C563.272009,186.62801 564.208,189.183985 564.208,192.256 C564.208,196.480021 562.624016,199.827988 559.456,202.3 C556.287984,204.772012 551.776029,206.008 545.92,206.008 C540.735974,206.008 536.536016,204.736013 533.32,202.192 C529.719982,199.407986 527.824001,195.472025 527.632,190.384 L536.056,190.384 C536.056,194.224019 538.04798,196.647995 542.032,197.656 C543.232006,197.992002 544.81599,198.16 546.784,198.16 C548.75201,198.16 550.575992,197.668005 552.256,196.684 C553.936008,195.699995 554.776,194.380008 554.776,192.724 C554.776,191.067992 554.320005,189.796004 553.408,188.908 C552.495995,188.019996 551.00801,187.192004 548.944,186.424 L539.656,182.752 C536.055982,181.359993 533.29601,179.728009 531.376,177.856 C529.45599,175.983991 528.496,173.392017 528.496,170.08 C528.496,166.191981 530.007985,163.120011 533.032,160.864 C536.104015,158.511988 540.267974,157.336 545.524,157.336 C550.780026,157.336 554.835986,158.547988 557.692,160.972 C560.548014,163.396012 562.191998,166.791978 562.624,171.16 L554.2,171.16 Z" id="CubedCSS" fill="#FFFFFF"></path>
    </g>
</svg>

<svg xmlns="http://www.w3.org/2000/svg" viewBox="0 0 600 355">
  <defs>
    <radialGradient id="a" r="84.51%" fx="50%" fy="50%" gradientTransform="matrix(.59167 0 0 1 .2 0)">
      <stop offset="0%" stop-color="#166DFF"/>
      <stop offset="100%" stop-color="#0346B8"/>
    </radialGradient>
  </defs>
  <g fill="none" fill-rule="evenodd">
    <path fill="url(#a)" d="M0 0h600v355H0z"/>
    <g fill="#FFF">
      <path d="M135.13 105.9v33.83l-23.93-13.59-44.82 25.98v51.66l44.82 25.99 23.93-13.6v32.93L111.2 263 37 220.4v-85.5L111.2 92l11.59 6.73z"/>
      <path fill-opacity=".75" d="M111.2 140.64l23.93 13.55v47.09l-23.93 13.68V177.5zM156.33 117.98l29.08 16.92v85.5l-29.08 16.62V177.5z"/>
    </g>
    <path fill="#FFF" d="M237.47 157.34a24 24 0 0 1 7.49 1.04c2.11.7 3.94 1.67 5.47 2.92 3.03 2.44 5 5.88 5.9 10.3l-9.07 1.65a13.51 13.51 0 0 0-3.56-5.94 8.44 8.44 0 0 0-6.01-2.27 9.4 9.4 0 0 0-7.92 4.1c-2.16 2.98-3.24 7.1-3.24 12.35 0 5.26.96 9.36 2.88 12.31 1.92 2.96 4.53 4.43 7.85 4.43 3.3 0 5.8-.8 7.48-2.41a8.24 8.24 0 0 0 2.52-6.23h9.15c0 5.23-1.67 9.28-5 12.13-3.34 2.86-7.91 4.29-13.72 4.29-6.2 0-11.11-2.16-14.76-6.48-3.7-4.42-5.55-10.42-5.55-18 0-7.68 1.9-13.68 5.7-18 3.64-4.13 8.44-6.2 14.4-6.2zm52.13 41.32c-2.2 4.66-5.76 6.99-10.66 6.99-6.19 0-10.27-2.43-12.24-7.27a15.51 15.51 0 0 1-1.08-6.12v-22.32h8.5v21.45c0 2.3.55 4.02 1.66 5.15a5.47 5.47 0 0 0 4.06 1.7c1.61 0 2.97-.24 4.07-.7a7.84 7.84 0 0 0 2.88-2.04c1.78-2.07 2.71-4.83 2.81-8.28v-17.28h8.5V205h-8.5v-6.34zm51.26-24.55c2.98 3.36 4.47 7.78 4.47 13.25s-1.56 9.98-4.68 13.54a14.5 14.5 0 0 1-11.3 5.1 10.8 10.8 0 0 1-5.95-1.72 11.66 11.66 0 0 1-4.28-5.33l-2.09 6.05h-5.54v-49.4h8.5v18.8c2.2-3.55 5.5-5.33 9.9-5.33 4.39 0 8.05 1.68 10.97 5.04zm-20.88 11.23v4.61c.1 2.45.99 4.47 2.67 6.05a8.01 8.01 0 0 0 5.8 2.3c2.27 0 4.23-1 5.86-2.98 1.63-2 2.45-4.62 2.45-7.89 0-3.26-.8-5.87-2.41-7.81a7.5 7.5 0 0 0-6.01-2.92c-2.4 0-4.4.8-5.98 2.38-1.58 1.58-2.38 3.67-2.38 6.26zm60.12-11.16c1.2 1.54 2.1 3.32 2.7 5.33.6 2.02.9 3.87.9 5.55 0 1.68-.1 3.19-.28 4.53H360.8c.1 2.83.79 5.14 2.09 6.91 1.3 1.78 3.26 2.67 5.9 2.67 3.5 0 5.6-1.54 6.26-4.61h8.57a12.56 12.56 0 0 1-4.82 8.28c-2.74 2.11-6.07 3.17-10.01 3.17-4.6 0-8.47-1.68-11.6-5.04-3.2-3.5-4.82-8-4.82-13.47 0-5.61 1.61-10.12 4.83-13.53a15.25 15.25 0 0 1 11.59-4.9c4.85 0 8.62 1.7 11.3 5.11zm-11.23 1.66c-2.4 0-4.27.78-5.61 2.34a10.53 10.53 0 0 0-2.38 6.01h14.9c0-3.79-1.2-6.33-3.6-7.63a7.03 7.03 0 0 0-3.3-.72zm47.81 23.76c-2.16 4.27-5.47 6.4-9.94 6.4-4.46 0-8.2-1.7-11.23-5.1-3.12-3.56-4.68-8.07-4.68-13.54 0-5.47 1.49-9.91 4.47-13.32a14.01 14.01 0 0 1 10.94-4.97c4.37 0 7.66 1.75 9.86 5.26V155.6h8.57V205h-6.98l-1.01-5.4zm-8.86-22.9c-2.4 0-4.4.98-6 2.92-1.62 1.94-2.42 4.55-2.42 7.81 0 3.27.82 5.9 2.45 7.89 1.63 1.99 3.7 2.98 6.19 2.98 2.06 0 3.91-.81 5.54-2.44a8.6 8.6 0 0 0 2.52-6.34v-4.54a8.79 8.79 0 0 0-2.52-6.12c-1.44-1.44-3.36-2.16-5.76-2.16zm47.02-19.36a24 24 0 0 1 7.49 1.04c2.11.7 3.93 1.67 5.47 2.92 3.02 2.44 5 5.88 5.9 10.3l-9.07 1.65a13.51 13.51 0 0 0-3.56-5.94 8.44 8.44 0 0 0-6.01-2.27 9.4 9.4 0 0 0-7.92 4.1c-2.16 2.98-3.24 7.1-3.24 12.35 0 5.26.96 9.36 2.88 12.31 1.92 2.96 4.53 4.43 7.84 4.43 3.32 0 5.81-.8 7.5-2.41a8.24 8.24 0 0 0 2.51-6.23h9.15c0 5.23-1.67 9.28-5 12.13-3.34 2.86-7.92 4.29-13.72 4.29-6.2 0-11.12-2.16-14.76-6.48-3.7-4.42-5.55-10.42-5.55-18 0-7.68 1.9-13.68 5.69-18 3.65-4.13 8.45-6.2 14.4-6.2zm53.42 13.82c-.76-4.08-3.64-6.12-8.64-6.12-2.44 0-4.35.5-5.72 1.48s-2.05 2.17-2.05 3.56c0 1.4.44 2.48 1.33 3.28.89.79 2.27 1.52 4.14 2.2l10.15 3.95c3.46 1.35 6.12 3.04 8 5.08a10.9 10.9 0 0 1 2.8 7.67c0 4.22-1.58 7.57-4.75 10.04-3.17 2.47-7.68 3.7-13.54 3.7-5.18 0-9.38-1.26-12.6-3.8-3.6-2.8-5.5-6.73-5.68-11.82h8.42c0 3.84 2 6.27 5.98 7.28 1.2.33 2.78.5 4.75.5 1.97 0 3.79-.5 5.47-1.48 1.68-.98 2.52-2.3 2.52-3.96 0-1.65-.46-2.92-1.37-3.81-.91-.89-2.4-1.72-4.46-2.49l-9.29-3.67c-3.6-1.39-6.36-3.02-8.28-4.9-1.92-1.87-2.88-4.46-2.88-7.77 0-3.89 1.51-6.96 4.54-9.22 3.07-2.35 7.23-3.52 12.49-3.52 5.25 0 9.31 1.2 12.17 3.63 2.85 2.43 4.5 5.82 4.93 10.19h-8.43zm45.94 0c-.77-4.08-3.65-6.12-8.64-6.12-2.45 0-4.36.5-5.72 1.48-1.37.98-2.06 2.17-2.06 3.56 0 1.4.45 2.48 1.34 3.28.88.79 2.26 1.52 4.14 2.2l10.15 3.95c3.45 1.35 6.12 3.04 7.99 5.08a10.9 10.9 0 0 1 2.8 7.67c0 4.22-1.58 7.57-4.74 10.04-3.17 2.47-7.68 3.7-13.54 3.7-5.18 0-9.38-1.26-12.6-3.8-3.6-2.8-5.5-6.73-5.69-11.82h8.43c0 3.84 1.99 6.27 5.97 7.28 1.2.33 2.79.5 4.75.5 1.97 0 3.8-.5 5.48-1.48 1.68-.98 2.52-2.3 2.52-3.96 0-1.65-.46-2.92-1.37-3.81-.91-.89-2.4-1.72-4.47-2.49l-9.28-3.67c-3.6-1.39-6.36-3.02-8.28-4.9-1.92-1.87-2.88-4.46-2.88-7.77 0-3.89 1.5-6.96 4.53-9.22 3.07-2.35 7.24-3.52 12.5-3.52 5.25 0 9.3 1.2 12.16 3.63 2.86 2.43 4.5 5.82 4.93 10.19h-8.42z"/>
  </g>
</svg>
